X:1
T:St. Alban (Steggall), 87.87
T:Charles H. Steggall (1826-1905)
T:St. Alban (Steggall), 87.87
T:Public Domain
C:Charles H. Steggall (1826-1905)
Z:Public Domain
%%score ( 1 2 ) ( 3 4 )
L:1/8
M:4/4
K:C
V:1 treble 
V:2 treble 
V:3 bass 
V:4 bass 
V:1
 E2 | E2 z B [CA]2 [Fc]2 | [Ge]2 [Fd]2 [EB]2 [Ec]2 | [FA]3 [FB] [E^G]2 [EA]2 | %4
 D2 C2 [B,E]2 [B,E]2 | [EA]3 [EB] [Ec]2 [Ae]2 | [Ad]2 GF [Ee]2 ^F^G | [Ac]3 [^GB] [Ac]2 [FA]2 | %8
 E2 D2 [CA]2 |] %9
V:2
 E2 | c3 D2 x3 | x8 | x8 | F4 x4 | x8 | x2 d2 x d2 x | x8 | ^G4 x2 |] %9
V:3
 [A,C]2 | [^G,E]2 [E,G,]2 [F,A,]2 [F,A,]2 | [C,C]2 B,A, [E,^G,]2 A,2 | %3
 [F,C]3 [D,D] [E,B,]2 [C,C]2 | B,2 A,2 [E,^G,]2 [D,G,]2 | [C,A,]3 [B,,^G,] [A,,A,]2 A,=G, | %6
 [F,C]2 [G,B,]2 [C,C]2 [B,,D]2 | [A,,E]3 [E,D] [A,C]2 [D,D]2 | [E,B,]4 [A,,A,]2 |] %9
V:4
 x2 | x8 | x2 D,2 x A,2 x | x8 | D,4 x4 | x6 C2 | x8 | x8 | x6 |] %9

